X:164
T:Highlanders Quadrilles #2. Le4.164, The
Q:3/8=100
L:1/8
B:L.Leadley MS#4 c1850
Z:vmp.Mike Hicken 2016 www.village-music-project.org.uk
M:6/8
K:G
!f!d|dBd g2b|b2a g2d|dBd g2b|d'2c' b2 (3B/c/d/|e z^g az (3A/B/c/|dz f gz d|
dBd dBd|e3 g2 !fermata!||!p!D|DEF G>AB|(A3 G2) G|GBd dBG|B3A!f!z d|d>ef g>ab|
(a3 g2) d|B>AG E2D|EGG G2||!p!d|d>ed dBd|g2a g2g|gbd' d'bg|
baa a2g|(e'>d'e') d'2d'|(c'>bc') b2a|(b>^ab) (b<ed)|(e3 g2) "_D.C."|]

